rospo-newyear-dark/symbolic/devices/camera-photo-symbolic.svg

<svg height="16" width="16" xmlns="http://www.w3.org/2000/svg"><path d="m3 2v1h-1c-.55 0-1 .45-1 1v9c0 .55.45 1 1 1h12c .55 0 1-.45 1-1v-9c0-.55-.45-1-1-1h-8v-1zm1 3c .55 0 1 .45 1 1s-.45 1-1 1-1-.45-1-1 .45-1 1-1zm5 1c1.66 0 3 1.34 3 3s-1.34 3-3 3-3-1.34-3-3 1.34-3 3-3z" fill="#d3dae3"/></svg>

<svg xmlns="http://www.w3.org/2000/svg" width="16" height="16" version="1.1">
 <path style="fill:#d3dae3" d="M 3,2 V 3 H 2 C 1.45,3 1,3.45 1,4 V 13 C 1,13.55 1.45,14 2,14 H 14 C 14.55,14 15,13.55 15,13 V 4 C 15,3.45 14.55,3 14,3 H 6 V 2 Z M 4,5 C 4.55,5 5,5.45 5,6 5,6.55 4.55,7 4,7 3.45,7 3,6.55 3,6 3,5.45 3.45,5 4,5 Z M 9,6 C 10.66,6 12,7.34 12,9 12,10.66 10.66,12 9,12 7.34,12 6,10.66 6,9 6,7.34 7.34,6 9,6 Z"/>
</svg>
